X:1
T:Supper Isna Ready
M:4/4
L:1/8
K:A
 z4 z2 E2| EA AA AA Ac| BA GF G2 FE| EA AA AA Ac| BA GF G2 FE| CB, B,C FE CA,|\
 CB, B,C/2-E/2 F2 ED| CB, B,C/2-E/2 F3/2 A/2E/2-C/2B,/2-A,/2| CB, B,C/2-E/2 FE z2|\
